!!!COM: Beethoven
!!!OTL: 24 Variationen uber Venni Amore von V. Righini
!!!Variation: Variation 12 b2
**function	**harm	**kern	**kern
*	*	*clefG2	*clefG2
*	*	*k[b-]	*k[b-]
*M2/4	*M2/4	*M2/4	*M2/4
*d:	*d:	*d:	*d:
=217	=217	=217	=217
*	*	*^	*
2D	viioD7d	4r	8gL	(8.ggL
.	.	.	(8gJ	.
.	.	.	.	16eeJk
.	.	(4B-	8eL	[4ccc#)
.	.	.	8gJ	.
=218	=218	=218	=218	=218
4D	V7	2A)	8eL	4ccc#]
.	.	.	8gJ	.
4D	ic	.	8fL	(8.dddL
.	.	.	8dJ)	.
.	.	.	.	16aaJk)
=219	=219	=219	=219	=219
2D	viioD7d	4r	8gL	(8.ggL
.	.	.	(8gJ	.
.	.	.	.	16eeJk
.	.	(4B-	8eL	[4ccc#)
.	.	.	8gJ	.
=220	=220	=220	=220	=220
4D	V7	2A)	8eL	4ccc#]
.	.	.	8gJ	.
4D	ic	.	8fL	(8.dddL
.	.	.	[8dJ) [8f	.
.	.	.	.	16eeeJk)
=221	=221	=221	=221	=221
2D	viioD7/V	4.G#; 4.B;	4.d;] 4.f;]	4.fff;
.	.	8r	8r	(8eee
*	*	*v	*v	*
=222	=222	=222	=222
*	*	*clefF4	*
4D	viioD7c	8r	8dddL
.	.	8G 8B- 8e	8ccc#J)
4T	ib	8r	8r
.	.	(8F 8d	(8ddd
=223	=223	=223	=223
8P	iiob	8GL 8e	8bb-L)
4D	ic	8A'J) 8d' 8f'	8aa'J
.	.	8r	8r
8D	V7	(8A 8e 8g	(8cc#
=224	=224	=224	=224
2T	i	4d') 4f'	8dd')
.	.	.	8r
.	.	8D'	4r
.	.	8r	.
*-	*-	*-	*-
